icon-themes/sifr_svg/cmd/lc_selectall.svg

<svg viewBox="0 0 24 24" xmlns="http://www.w3.org/2000/svg"><path d="m3 2v21h11v-2h-9v-17h8v5h5v3h2v-4l-6-6zm3 8v2h8v-2zm9 3v2h3v6h-3v2h8v-2h-3v-6h3v-2zm-9 1v2h8v-2zm0 4v2h8v-2z" fill="#555753"/></svg>

<svg xmlns="http://www.w3.org/2000/svg" viewBox="0 0 24 24">
  <path
     style="fill:#555753"
     d="M 3 2 L 3 23 L 14 23 L 14 21 L 5 21 L 5 4 L 13 4 L 13 9 L 18 9 L 18 12 L 20 12 L 20 8 L 14 2 L 3 2 z M 6 10 L 6 12 L 14 12 L 14 10 L 6 10 z M 15 13 L 15 15 L 18 15 L 18 21 L 15 21 L 15 23 L 23 23 L 23 21 L 20 21 L 20 15 L 23 15 L 23 13 L 15 13 z M 6 14 L 6 16 L 14 16 L 14 14 L 6 14 z M 6 18 L 6 20 L 14 20 L 14 18 L 6 18 z "
     />
</svg>
